X: 983
T: Tucker's Barn
C:Old Time
B: jims roots
M:C|
L:1/8
Q: 1/4=100
K:D
V:1 
%N:TablEdited by Jim Kendrick
Ac|:"D"d2fe"A"Acec|"D"defd "A"A2 (3ABc |[M:3/2]"D"d2ef "G"g2ee dBAB|[M:C|]g6 (3ABc |
"D"d2fd "A"Acec|"D"defd "A"A2 (3ABc | [M:3/2]"D"d2ef "G"g2ee dBAB|[M:C|][G,6G6]ef|
"G"g2e2d2B2 | GABG EDEF | G2 Bd "A"=cBAG | FGAF "D"D2DE | FFAF A=cBA |
"G"GABG EDEF | G2Bd "A"=cBAG | FGAF "D"D2DE | FFAF A=cBA |
"G"GABG EDEF | G2Bd "A"=cBAG|[1 FGAF "D"D2 (3ABc:| [2 "A"FGAF "D"D4|]
% abcbook-tune_id 6298c297db1fe1ad7c106d1b


% abcbook-boost 0
% abcbook-tablature 
% abcbook-transpose 
% abcbook-lastupdated 1654178456306
% abcbook-soundfonts 
% abcbook-repeats 1


